X:113
T:Follow Her Over The Border
Z:Jack Campin, http://www.campin.me.uk/
S:Northumbrian Minstrelsy
M:9/8
L:1/8
K:G
e|d2B BGB BGB|d2B BGB d2g|d2B BGB BGB|c2A ABA c2:|
e|dBB gBB dBB|dBB gBB d2e|dBB gBB dBB|c2A ABA c2:|

